build/svg/business-outline.svg

<svg xmlns="http://www.w3.org/2000/svg" class="ionicon" viewBox="0 0 512 512"><path d="M176 416v64M80 32h192a32 32 0 0 1 32 32v412a4 4 0 0 1-4 4H48V64a32 32 0 0 1 32-32m240 160h112a32 32 0 0 1 32 32v256H304V208a16 16 0 0 1 16-16" class="ionicon-fill-none ionicon-stroke-width"/><path d="M98.08 431.87a16 16 0 1 1 13.79-13.79 16 16 0 0 1-13.79 13.79m0-80a16 16 0 1 1 13.79-13.79 16 16 0 0 1-13.79 13.79m0-80a16 16 0 1 1 13.79-13.79 16 16 0 0 1-13.79 13.79m0-80a16 16 0 1 1 13.79-13.79 16 16 0 0 1-13.79 13.79m0-80a16 16 0 1 1 13.79-13.79 16 16 0 0 1-13.79 13.79m80 240a16 16 0 1 1 13.79-13.79 16 16 0 0 1-13.79 13.79m0-80a16 16 0 1 1 13.79-13.79 16 16 0 0 1-13.79 13.79m0-80a16 16 0 1 1 13.79-13.79 16 16 0 0 1-13.79 13.79m0-80a16 16 0 1 1 13.79-13.79 16 16 0 0 1-13.79 13.79m80 320a16 16 0 1 1 13.79-13.79 16 16 0 0 1-13.79 13.79m0-80a16 16 0 1 1 13.79-13.79 16 16 0 0 1-13.79 13.79m0-80a16 16 0 1 1 13.79-13.79 16 16 0 0 1-13.79 13.79"/><ellipse cx="256" cy="176" rx="15.95" ry="16.03" transform="rotate(-45 255.99 175.996)"/><path d="M258.08 111.87a16 16 0 1 1 13.79-13.79 16 16 0 0 1-13.79 13.79M400 400a16 16 0 1 0 16 16 16 16 0 0 0-16-16m0-80a16 16 0 1 0 16 16 16 16 0 0 0-16-16m0-80a16 16 0 1 0 16 16 16 16 0 0 0-16-16m-64 160a16 16 0 1 0 16 16 16 16 0 0 0-16-16m0-80a16 16 0 1 0 16 16 16 16 0 0 0-16-16m0-80a16 16 0 1 0 16 16 16 16 0 0 0-16-16"/></svg>

<svg xmlns="http://www.w3.org/2000/svg" class="ionicon" viewBox="0 0 512 512"><path stroke-linecap="round" stroke-linejoin="round" d="M176 416v64M80 32h192a32 32 0 0132 32v412a4 4 0 01-4 4H48h0V64a32 32 0 0132-32zM320 192h112a32 32 0 0132 32v256h0-160 0V208a16 16 0 0116-16z" class="ionicon-fill-none ionicon-stroke-width"/><path d="M98.08 431.87a16 16 0 1113.79-13.79 16 16 0 01-13.79 13.79zM98.08 351.87a16 16 0 1113.79-13.79 16 16 0 01-13.79 13.79zM98.08 271.87a16 16 0 1113.79-13.79 16 16 0 01-13.79 13.79zM98.08 191.87a16 16 0 1113.79-13.79 16 16 0 01-13.79 13.79zM98.08 111.87a16 16 0 1113.79-13.79 16 16 0 01-13.79 13.79zM178.08 351.87a16 16 0 1113.79-13.79 16 16 0 01-13.79 13.79zM178.08 271.87a16 16 0 1113.79-13.79 16 16 0 01-13.79 13.79zM178.08 191.87a16 16 0 1113.79-13.79 16 16 0 01-13.79 13.79zM178.08 111.87a16 16 0 1113.79-13.79 16 16 0 01-13.79 13.79zM258.08 431.87a16 16 0 1113.79-13.79 16 16 0 01-13.79 13.79zM258.08 351.87a16 16 0 1113.79-13.79 16 16 0 01-13.79 13.79zM258.08 271.87a16 16 0 1113.79-13.79 16 16 0 01-13.79 13.79z"/><ellipse cx="256" cy="176" rx="15.95" ry="16.03" transform="rotate(-45 255.99 175.996)"/><path d="M258.08 111.87a16 16 0 1113.79-13.79 16 16 0 01-13.79 13.79zM400 400a16 16 0 1016 16 16 16 0 00-16-16zM400 320a16 16 0 1016 16 16 16 0 00-16-16zM400 240a16 16 0 1016 16 16 16 0 00-16-16zM336 400a16 16 0 1016 16 16 16 0 00-16-16zM336 320a16 16 0 1016 16 16 16 0 00-16-16zM336 240a16 16 0 1016 16 16 16 0 00-16-16z"/></svg>
